!!!AGN: Motet
!!!SCT: Sherr (1990)
!!!voices: 4
!!!COM: Maistre Jan
!!!OTL: Johannes Jesu Christo
**kern	**kern	**kern	**kern
*part4	*part3	*part2	*part1
*staff4	*staff3	*staff2	*staff1
*I"Bassus	*I"Tenor	*I"Altus	*I"Superius
*I'B	*I'T	*I'A	*I'S
*clefF4	*clefGv2	*clefGv2	*clefG2
*k[]	*k[]	*k[]	*k[]
*C:	*C:	*C:	*C:
*M2/1	*M2/1	*M2/1	*M2/1
*met(C|)	*met(C|)	*met(C|)	*met(C|)
!!section: Prima pars: Johannes Jesu Christo
!!!OMD: Prima pars: Johannes Jesu Christo
0r	0r	0d	0r
=1	=1	=1	=1
0r	0G	1e	0r
.	.	1d	.
=2	=2	=2	=2
0r	0A	1c	0r
.	.	1e	.
=3	=3	=3	=3
0C	0G	1g	0r
.	.	1e	.
=4	=4	=4	=4
0D	1F	1.f	0r
.	1A	.	.
.	.	4e	.
.	.	4d	.
=5	=5	=5	=5
1C	0c	2.e	0g
.	.	4d	.
1C	.	2e	.
.	.	[2c	.
=6	=6	=6	=6
1F	1A	4c]	1a
.	.	4B	.
.	.	4c	.
.	.	4d	.
1E	1c	2e	1g
.	.	2c	.
=7	=7	=7	=7
1D	1A	1d	1f
[1F	2r	2c	1a
.	[2c	[2f	.
=8	=8	=8	=8
2F]	4c]	2f]	0cc
.	4d	.	.
2C	2e	2g	.
2.F	2f	2a	.
.	[2c	[2A	.
4G	.	.	.
=9	=9	=9	=9
1A	4c]	4A]	1a
.	4d	4B	.
.	2e	4c	.
.	.	4d	.
1A	2A	2e	[1cc
.	[2c	[2f	.
=10	=10	=10	=10
1F	2c]	4f]	2cc]
.	.	4e	.
.	2d	1d	2a
1A	2e	.	1cc
.	2f	[2c	.
=11	=11	=11	=11
1G	1g	2c]	1dd
.	.	2B	.
2r	4g	1c	1ee
.	4f	.	.
[2c	4e	.	.
.	4d	.	.
=12	=12	=12	=12
4c]	2e	1r	2cc
4B	.	.	.
2A	2c	.	2.ee
2G	1d	1g	.
.	.	.	4dd
2B	.	.	[2dd
=13	=13	=13	=13
1A	1e	1a	2dd]
.	.	.	2cc#i
1D	1d	1a	1dd
=14	=14	=14	=14
1E	2B	1g	1r
.	2c	.	.
1r	1A	1a	1cc
=15	=15	=15	=15
0r	2r	0g	1dd
.	2G	.	.
.	1c	.	[1ee
=16	=16	=16	=16
0r	2d	1f	2ee]
.	2d	.	2dd
.	2c	[1g	1ee
.	4B	.	.
.	4A	.	.
=17	=17	=17	=17
1r	1B	1g]	1dd
1F	4A	1a	1cc
.	4B	.	.
.	4c	.	.
.	4d	.	.
=18	=18	=18	=18
1G	2e	2g	1r
.	1d	1g	.
1A	.	.	1a
.	2c	2f	.
=19	=19	=19	=19
1G	1d	1g	2b
.	.	.	1dd
1A	2r	2e	.
.	2c	2f	2cc
=20	=20	=20	=20
1G	2d	1g	1b
.	2e	.	.
1F	2.f	1c	2a
.	.	.	[2cc
.	4e	.	.
=21	=21	=21	=21
1G	4d	2.g	2cc]
.	4c	.	.
.	2d	.	2b
.	.	4f	.
2.A	1c	4e	1a
.	.	4d	.
.	.	[2c	.
4G	.	.	.
=22	=22	=22	=22
4F	1A	2c]	2r
4E	.	.	.
2F	.	1d	2f
2.E	[1e	.	[1g
.	.	4c	.
4D	.	4B	.
=23	=23	=23	=23
1E	1e]	2c	1g]
.	.	2B	.
1D	1f	2.d	[1a
.	.	4c	.
=24	=24	=24	=24
0r	1d	4B	2a]
.	.	4A	.
.	.	2B	2g
.	2e	1A	1a
.	[2f	.	.
=25	=25	=25	=25
1r	4f]	1.c	1g
.	8eL	.	.
.	8dJ	.	.
.	2e	.	.
1F	1A	.	2f
.	.	[2d	2a
=26	=26	=26	=26
1G	0r	2d]	1.g
.	.	1e	.
[1A	.	.	.
.	.	[2c	4f
.	.	.	4e
=27	=27	=27	=27
2A]	0r	2c]	2f
2G	.	1d	2g
1A	.	.	1e
.	.	2c	.
=28	=28	=28	=28
1G	1r	2d	1r
.	.	2e	.
2F	1c	1f	1cc
2A	.	.	.
=29	=29	=29	=29
2G	1d	1r	2b
2D	.	.	2a
1A	[1e	[1c	4cc
.	.	.	4dd
.	.	.	2ee
=30	=30	=30	=30
0r	2e]	2c]	2cc
.	2d	2B	2.dd
.	1e	1c	.
.	.	.	4cc
.	.	.	[2cc
=31	=31	=31	=31
1r	1d	1f	2cc]
.	.	.	2b
1A	2c	2e	[1a
.	2d	[2d	.
=32	=32	=32	=32
1A	1e	2d]	1a]
.	.	2c#i	.
1D	2d	1d	1r
.	[2f	.	.
=33	=33	=33	=33
1F	4f]	1A	1cc
.	4e	.	.
.	2c	.	.
1G	2e	1r	1b
.	2d	.	.
=34	=34	=34	=34
2A	2r	0c	1a
1A	2e	.	.
.	1f	.	1cc
2F	.	.	.
=35	=35	=35	=35
0r	1d	1B	1dd
.	2.c	1A	2ee
.	.	.	[2ee
.	4d	.	.
=36	=36	=36	=36
1A	2e	1c	2ee]
.	1f	.	2cc
1B	.	1d	1r
.	4e	.	.
.	4d	.	.
=37	=37	=37	=37
2A	2c	2e	1r
2G	2B	1e	.
2.A	[1c	.	1ee
.	.	2c	.
4G	.	.	.
=38	=38	=38	=38
2F	2c]	1r	1ff
2D	1d	.	.
1A	.	1e	1ee
.	2c	.	.
=39	=39	=39	=39
1D	2A	1f	2dd
.	2B	.	2dd
1r	1c	1e	2ee
.	.	.	[2cc
=40	=40	=40	=40
1r	1G	1d	4cc]
.	.	.	8bL
.	.	.	8aJ
.	.	.	2b
1C	2r	1e	2g
.	2e	.	[2a
=41	=41	=41	=41
4D	1f	1d	4a]
4E	.	.	4g
4F	.	.	4a
4G	.	.	4b
4A	1e	1c	1cc
4B	.	.	.
2c	.	.	.
=42	=42	=42	=42
2.G	2d	1g	1r
.	2e	.	.
4A	.	.	.
1B	1d	2f	1dd
.	.	2g	.
=43	=43	=43	=43
0A	2c	0a	2ee
.	2d	.	1dd
.	1e	.	.
.	.	.	2cc
=44	=44	=44	=44
0D	1d	1f	2.dd
.	.	.	4cc
.	1f	1r	4b
.	.	.	4a
.	.	.	[2b
=45	=45	=45	=45
0r	1e	1c	4b]
.	.	.	4a
.	.	.	1a
.	1d	1B	.
.	.	.	2g#i
=46	=46	=46	=46
0F	1.f	2A	0a
.	.	1c	.
.	2f	2d	.
=47	=47	=47	=47
0E	1g	2e	0r
.	.	1e	.
.	1g	.	.
.	.	2c	.
=48	=48	=48	=48
2D	1.a	2.f	0r
1F	.	.	.
.	.	4e	.
.	.	4d	.
.	.	4c	.
2G	4g	2d	.
.	4f	.	.
=49	=49	=49	=49
2A	2e	0c	0cc
1A	2e	.	.
.	1f	.	.
2F	.	.	.
=50	=50	=50	=50
2G	1d	1r	1b
2G	.	.	.
2.A	1c	1e	2a
.	.	.	[2cc
4G	.	.	.
=51	=51	=51	=51
2F	2A	1f	2cc]
4E	2B	.	2dd
4D	.	.	.
2C	1c	[1e	2ee
[2C	.	.	[2ee
=52	=52	=52	=52
2C]	0G	1e]	2ee]
1c	.	.	2cc
.	.	1d	1r
2B	.	.	.
=53	=53	=53	=53
1c	1r	1e	1ee
1r	2r	2d	2ff
.	2e	2c	[2ee
=54	=54	=54	=54
1r	1f	1d	2ee]
.	.	.	2dd
2A	1e	2c	1r
[2G	.	[2B	.
=55	=55	=55	=55
2G]	2d	4B]	0r
.	.	4G	.
2E	2e	1c	.
2F	1d	.	.
2G	.	2B	.
=56	=56	=56	=56
2A	2c	2c	2ee
2B	2d	2G	1dd
1A	1e	2r	.
.	.	2A	2cc
=57	=57	=57	=57
1D	1f	1d	2.dd
.	.	.	4ee
1r	2.d	1d	2ff
.	.	.	[2dd
.	8cL	.	.
.	8BJ	.	.
=58	=58	=58	=58
2r	2A	1e	2dd]
2C	2.G	.	2cc
1G	.	1d	2.dd
.	4A	.	.
.	4B	.	.
.	4c	.	4cc
=59	=59	=59	=59
1G	2d	2r	4b
.	.	.	4a
.	2G	1e	2b
1A	1c	.	1a
.	.	2f	.
=60	=60	=60	=60
1G	1d	2g	1r
.	.	2.g	.
2r	1e	.	1g
.	.	4f	.
2c	.	2e	.
=61	=61	=61	=61
2B	2d	1r	1g
1c	1e	.	.
.	.	2A	1a
4B	2f	2c	.
4A	.	.	.
=62	=62	=62	=62
1G	2g	2d	1b
.	2g	2e	.
2A	2f	2c	2a
2E	2e	[2g	[2b
=63	=63	=63	=63
2G	2r	4g]	2b]
.	.	4f	.
2A	2c	2e	2cc
1D	2B	1f	2dd
.	[2A	.	[2dd
=64	=64	=64	=64
0r	4A]	1e	2dd]
.	4G	.	.
.	2A	.	2cc
.	2B	1d	2b
.	[2G	.	2b
=65	=65	=65	=65
1C	2G]	1e	2.cc
.	2.A	.	.
.	.	.	4b
2D	.	1r	2a
.	4B	.	.
2E	[2c	.	2g
=66	=66	=66	=66
2.F	4c]	0r	1f
.	4A	.	.
.	1d	.	.
4D	.	.	.
1E	.	.	2r
.	2c#i	.	2g
=67	=67	=67	=67
1D	1d	1r	2a
.	.	.	2b
1r	1A	1c	2.cc
.	.	.	4a
=68	=68	=68	=68
1G	1r	2d	1b
.	.	2e	.
2A	2r	2f	2a
2B	2G	2g	[2dd
=69	=69	=69	=69
2c	2A	1e	4dd]
.	.	.	8cc#iL
.	.	.	8bJ
2A	2A	.	2cc#i
2r	1B	1d	1dd
[2D	.	.	.
=70	=70	=70	=70
4D]	2.A	2r	1r
4E	.	.	.
1F	.	2c	.
.	4G	.	.
.	2A	2d	2r
2G	2B	2d	2g
=71	=71	=71	=71
1C	2c	1e	2g
.	2e	.	2g
1r	4f	1d	1a
.	2g	.	.
.	4f	.	.
=72	=72	=72	=72
1E	1g	2B	1g
.	.	1c	.
1F	1f	.	1a
.	.	2d	.
=73	=73	=73	=73
2G	2e	1r	1g
1G	2d	.	.
.	1r	1d	1r
2F	.	.	.
=74	=74	=74	=74
1E	1e	2c	2r
.	.	2B	2g
1r	2e	2A	1cc
.	[2f	2F	.
=75	=75	=75	=75
1r	2f]	1B-i	2dd
.	2d	.	1dd
2r	1e	4A	.
.	.	4Bny	.
[2A	.	4c	2cc
.	.	4d	.
=76	=76	=76	=76
2A]	2r	2e	2a
2A	2c	2f	1cc
1G	2d	1g	.
.	2e	.	2b
=77	=77	=77	=77
1F	2f	0r	1a
.	2c	.	.
1E	1e	.	2b
.	.	.	2g
=78	=78	=78	=78
2r	1d	0r	2a
2G	.	.	2b
2A	2c	.	2cc
2B	2d	.	[2b
=79	=79	=79	=79
2.c	0r	2r	4b]
.	.	.	4a
.	.	2c	1a
4A	.	.	.
2B	.	2d	.
2c	.	2e	2g
=80	=80	=80	=80
2.F	2r	1f	[0a
.	1d	.	.
4G	.	.	.
1A	.	1e	.
.	2c	.	.
=81	=81	=81	=81
0D	2d	2f	0a]
.	2f	2d	.
.	1d	2.f	.
.	.	4e	.
=82	=82	=82	=82
1A	2e	1c	0r
.	2f	.	.
1G	1g	2r	.
.	.	[2d	.
=83	=83	=83	=83
1A	2.e	2d]	1a
.	.	1c	.
.	4d	.	.
2r	2e	.	1g
2G	2B	2d	.
=84	=84	=84	=84
1F	1c	1f	2a
.	.	.	1cc
1G	1r	1d	.
.	.	.	2b
=85	=85	=85	=85
0r	1A	2e	1a
.	.	2f	.
.	2G	2g	2b
.	2A	2e	2cc
=86	=86	=86	=86
0r	2a	1f	1dd
.	1a	.	.
.	.	1e	2b
.	2g	.	[2cc
=87	=87	=87	=87
1F	2a	0f	2cc]
.	2A	.	2a
1D	1d	.	2.a
.	.	.	8gL
.	.	.	8fJ
=88	=88	=88	=88
2E	2r	2e	2g
2F	2.f	4d	2a
.	.	4c	.
2G	.	2B	2b
.	4e	.	.
2E	[2e	2G	[2cc
=89	=89	=89	=89
1F	4e]	1A	4cc]
.	8dL	.	4b
.	8cJ	.	.
.	2d	.	2a
1E	[1e	2B	[1g
.	.	[2c	.
=90	=90	=90	=90
1.C	1e]	4c]	1g]
.	.	4B	.
.	.	4c	.
.	.	4d	.
.	1A	2e	1r
2D	.	[2f	.
=91	=91	=91	=91
1E	0r	2f]	1g
.	.	2.e	.
2.F	.	.	1a
.	.	4d	.
.	.	[2d	.
4D	.	.	.
=92	=92	=92	=92
1E	1G	2d]	1r
.	.	2c#i	.
1D	1A	1d	1f
=93	=93	=93	=93
0r	2B	0r	1g
.	1c	.	.
.	.	.	2a
.	2d	.	[2b
=94	=94	=94	=94
0r	1e	1g	2b]
.	.	.	4a
.	.	.	4g
.	[1d	1f	1a
=95	=95	=95	=95
1G	1d]	2g	1g
.	.	2G	.
1F	[1d	1A	2r
.	.	.	2a
=96	=96	=96	=96
2G	1d]	2B	1g
2B	.	2G	.
1A	1c	1r	2a
.	.	.	2cc
=97	=97	=97	=97
2D	2d	0r	1a
2D	2f	.	.
2G	2d	.	1b
2E	[2e	.	.
=98	=98	=98	=98
2r	2e]	2A	2cc
2D	2f	1d	1dd
1G	1g	.	.
.	.	2G	2b
=99	=99	=99	=99
2C	2e	0c	1r
1F	2r	.	.
.	1r	.	1cc
2E	.	.	.
=100	=100	=100	=100
1D	1f	2B	1dd
.	.	1A	.
1E	[1e	.	1b
.	.	2G	.
=101	=101	=101	=101
2r	1e]	2A	1cc
1G	.	2E	.
.	1d	2G	2b
2A	.	2F	[2a
=102	=102	=102	=102
2B	1e	1E	2a]
2.c	.	.	2g
.	2r	1r	[1a
4B	.	.	.
4A	[2c	.	.
4G	.	.	.
=103	=103	=103	=103
2F	2c]	1r	1a]
2D	2d	.	.
1A	1e	2r	[1a
.	.	[2c	.
=104	=104	=104	=104
2F	2.f	2c]	1a]
2D	.	2d	.
.	8eL	.	.
.	8dJ	.	.
1A	2c	1e	2r
.	[2A	.	[2cc
=105	=105	=105	=105
2.F	4A]	1f	2cc]
.	4G	.	.
.	4A	.	2dd
8EL	4B	.	.
8DJ	.	.	.
2C	2c	2e	2ee
[2D	2A	2d	[2ff
=106	=106	=106	=106
4D]	1a	1f	4ff]
4E	.	.	4ee
2F	.	.	1dd
2G	1r	1e	.
2A	.	.	2cc#i
=107	=107	=107	=107
1D	1A	1d	1dd
1r	1G	1d	1r
=108	=108	=108	=108
0r	1A	1c	1a
.	2B	2.d	1g
.	2B	.	.
.	.	4d	.
=109	=109	=109	=109
1A	1c	2e	1a
.	.	2f	.
1G	2d	2g	2b
.	2d	2g	2b
=110	=110	=110	=110
1A	1r	2r	1cc
.	.	1a	.
2B	1d	.	2dd
2B	.	2g	[2dd
=111	=111	=111	=111
2r	2d	2a	2dd]
2E	2e	2g	4cc
.	.	.	4b
2F	2d	2.f	1a
2F	[2c	.	.
.	.	4e	.
=112	=112	=112	=112
1G	2c]	1d	1g
.	2B	.	.
2F	2.A	1r	1r
[2A	.	.	.
.	4B	.	.
=113	=113	=113	=113
2A]	2c	1r	0r
2G	1d	.	.
2F	.	2r	.
2E	2c#i	2g	.
=114	=114	=114	=114
1D	2d	2f	1dd
.	1f	1a	.
1r	.	.	2cc
.	2e	2g	[2ee
=115	=115	=115	=115
1r	2r	2.f	2ee]
.	1a	.	2dd
.	.	4f	.
1E	.	1e	2cc
.	2g	.	2b
=116	=116	=116	=116
2F	2.f	2c	1a
2D	.	2d	.
.	4f	.	.
1E	2e	1B	2r
.	[2g	.	2b
=117	=117	=117	=117
1C	4g]	2r	1cc
.	4f	.	.
.	2e	2e	.
2D	1d	1f	1a
2D	.	.	.
=118	=118	=118	=118
0r	2r	1d	1b
.	2B	.	.
.	1c	1e	1g
=119	=119	=119	=119
0r	1A	1c	2a
.	.	.	2a
.	1B	2d	1r
.	.	[2g	.
=120	=120	=120	=120
0r	1G	4g]	1.dd
.	.	4f	.
.	.	2g	.
.	2A	1e	.
.	2A	.	2cc
=121	=121	=121	=121
0G	1r	1d	1dd
.	[1d	1r	2g
.	.	.	2g
=122	=122	=122	=122
1F	0d]	1r	2r
.	.	.	1cc
1G	.	1g	.
.	.	.	2b
=123	=123	=123	=123
2A	1c	2e	2a
2A	.	1f	2.cc
2r	1d	.	.
.	.	.	8bL
.	.	.	8aJ
2G	.	2g	2b
=124	=124	=124	=124
1C	2e	1g	1cc
.	2e	.	.
2.c	2r	1r	1g
.	2e	.	.
4B	.	.	.
=125	=125	=125	=125
2A	2f	2r	2a
2G	1g	1d	2b
1A	.	.	1cc
.	2f#i	2c	.
=126	=126	=126	=126
1G	0g	1d	1b
2r	.	2e	1r
2c	.	2e	.
=127	=127	=127	=127
2B	1r	2r	0r
2G	.	2e	.
1B-X	1d	2f	.
.	.	[2g	.
=128	=128	=128	=128
1A	1c	2g]	2r
.	.	2f	2cc
1E	1e	1g	2b
.	.	.	2g
=129	=129	=129	=129
2r	1.d	1G	1b
2G	.	.	.
2F	.	1r	2a
2A	2c	.	2a
=130	=130	=130	=130
2G	0B	1d	2r
2F	.	.	2a
1E	.	1e	2a
.	.	.	2g
=131	=131	=131	=131
0AA	1r	2c	2.a
.	.	2d	.
.	.	.	4b
.	[1A	1e	4cc
.	.	.	4dd
.	.	.	[2ee
=132	=132	=132	=132
0r	2A]	1f	2ee]
.	2B	.	1dd
.	2G	1e	.
.	[2A	.	2cc#i
=133	=133	=133	=133
1D	2A]	1d	1dd
.	1B	.	.
2E	.	1r	1r
2C	2c	.	.
=134	=134	=134	=134
2D	4B	0r	2r
.	4A	.	.
2E	2.c	.	1cc
1F	.	.	.
.	4B	.	.
.	[2A	.	2dd
=135	=135	=135	=135
2C	2A]	1c	2ee
2E	2G	.	2ee
1D	1A	1d	1ff
=136	=136	=136	=136
0C	1r	1e	2gg
.	.	.	2gg
.	1G	2e	2r
.	.	[2e	[2gg
=137	=137	=137	=137
1r	1A	2e]	2gg]
.	.	2f	2ff
1G	2B	2g	2dd
.	2B	2g	[2ee
=138	=138	=138	=138
1A	1c	2e	4ee]
.	.	.	4dd
.	.	2e	2cc
1BnX	2d	2r	2b
.	2d	[2d	[2a
=139	=139	=139	=139
1B	1r	2d]	2a]
.	.	2d	2g
1r	2.f	1d	1a
.	4f	.	.
=140	=140	=140	=140
1.E	2.g	1e	2r
.	.	.	1g
.	4f	.	.
.	2e	1r	.
2F	[2d	.	2a
=141	=141	=141	=141
2G	4d]	1.d	2.b
.	4c	.	.
1G	4B	.	.
.	4A	.	4cc
.	2G	.	2b
2F	2A	2d	[2a
=142	=142	=142	=142
1E	2B	1e	2a]
.	1c	.	2g
2r	.	1f	1a
2F	2d	.	.
=143	=143	=143	=143
2G	2e	2e	2b
2A	2.f	2c	1a
1B-i	.	1d	.
.	4e	.	.
.	[2d	.	2g
=144	=144	=144	=144
1A	2d]	1e	0a
.	2c	.	.
2r	1f	2d	.
2F	.	[2d	.
=145	=145	=145	=145
2G	1e	2d]	1r
2A	.	2c#i	.
2.B	2d	1d	1g
.	[2g	.	.
4c	.	.	.
=146	=146	=146	=146
1A	2g]	2r	1a
.	2f#i	2c	.
[1G	[1g	1d	1b
=147	=147	=147	=147
1G]	1g]	0e	2b
.	.	.	1b
1r	1r	.	.
.	.	.	2cc
=148	=148	=148	=148
0r	1G	2d	2dd
.	.	1e	2b
.	1A	.	2cc
.	.	2f	2a
=149	=149	=149	=149
1r	0B	2g	0dd
.	.	2.d	.
2r	.	.	.
.	.	4c	.
[2D	.	4d	.
.	.	4e	.
=150	=150	=150	=150
2D]	2A	2f	1dd
2D	1B	2d	.
1E	.	2g	1r
.	2c	2g	.
=151	=151	=151	=151
2D	2d	2f	1r
1E	1g	1e	.
.	.	.	2r
2F	2f	4d	[2cc
.	.	4c	.
=152	=152	=152	=152
2G	2e	2g	2cc]
2G	2d	2G	2b
1F	4d	1A	1a
.	4e	.	.
.	4f	.	.
.	4d	.	.
=153	=153	=153	=153
1E	1e	2B	1g
.	.	2.c	.
1F	2c	.	1a
.	.	4A	.
.	2d	[2d	.
=154	=154	=154	=154
1E	1e	4d]	2r
.	.	4c#i	.
.	.	4c#i	2g
.	.	4B	.
1D	2f	2d	2a
.	[2d	2d	2b
=155	=155	=155	=155
1A	2d]	2e	2.cc
.	2c	2f	.
.	.	.	4a
1G	1d	1g	1b
=156	=156	=156	=156
2A	1r	2c	2a
2B	.	2d	2dd
2.c	2r	1e	2cc
.	2c	.	[2a
4A	.	.	.
=157	=157	=157	=157
1B	1d	0r	4a]
.	.	.	8g#iL
.	.	.	8f#iJ
.	.	.	2g#i
[1A	2e	.	1a
.	[2f	.	.
=158	=158	=158	=158
1A]	2f]	0r	2r
.	2.e	.	2cc
2G	.	.	1dd
.	4d	.	.
2F	[2d	.	.
=159	=159	=159	=159
1E	2d]	1G	1ee
.	2c#i	.	.
1D	1d	2A	1ff
.	.	2B	.
=160	=160	=160	=160
0r	2e	1c	2cc
.	2.g	.	2.ee
.	.	2G	.
.	8fL	.	4dd
.	8eJ	.	.
.	2d	2B	[2dd
=161	=161	=161	=161
1r	1e	2A	2dd]
.	.	2A	2cc#i
1D	1d	1A	[1dd
=162	=162	=162	=162
2G	2r	2B	1dd]
2G	2B	1d	.
1A	2e	.	2r
.	2e	2c	2a
=163	=163	=163	=163
2D	1f	2d	2a
1F	.	4c	2a
.	.	4B	.
.	2c	2A	1cc
2E	[2e	2G	.
=164	=164	=164	=164
2G	2e]	2g	2b
2A	2c	2e	2.ee
1B	1d	2g	.
.	.	.	4dd
.	.	4f	[2dd
.	.	4g	.
=165	=165	=165	=165
1A	1e	1a	2dd]
.	.	.	2cc#i
[1Dl	[1dl	[1al	[1ddl
=166	=166	=166	=166
00D]	00d]	00a]	00dd]
==	==	==	==
*-	*-	*-	*-
!!!system-decoration: [*]
!!!RDF**kern: i = editorial accidental
!!!RDF**kern: l = terminal long
!!!ENC: Benjamin Ory
!!!END: 2021/5/17
!!!EED: Benjamin Ory
!!!EEV: 2021/05/17
!!!YEC: Copyright 2021 Benjamin Ory, All Rights Reserved
!!!ONB: Translated from MusicXML on 2021/05/17s